X: 10432
T: MONEY MUSK
C:
%R: reel
B: Elias Howe "The Musician's Companion" Part 1 1842 p.43 #2
S: http://imslp.org/wiki/The_Musician's_Companion_(Howe,_Elias)
Z: 2015 John Chambers <jc:trillian.mit.edu>
M: C|
L: 1/8
K: A
% - - - - - - - - - - - - - - - - - - - - - - - - -
f |\
eAcA eAdf | eAcA Bcdf | eAcA ceea | fdBe cAAf |\
eAcA eAdf | eAcA B/c/B ef | eAcA c/d/eea | fdBe cAA :|
|: a |\
aeea caea | aeda caBa | aefa eaca | fdBe cAA a |\
aeea caea | aeda caBa | aefa eafa | caBa cAA :|
% - - - - - - - - - - - - - - - - - - - - - - - - -
